static/assets/template/assets/img/icons/essential/detailed/Stopwatch.svg

<svg height="144" viewBox="0 0 152 144" width="152" xmlns="http://www.w3.org/2000/svg"><g fill="none" fill-rule="evenodd" transform="translate(2 2)"><g stroke-linecap="round" stroke-linejoin="round" stroke-width="3" transform="translate(0 140)"><path d="m1.8.3h-1.5"/><path d="m43.3.3h-35.7"/><path d="m51 .3h-1.4"/><path d="m141.5.3h-82.7"/><path d="m148.4.3h-2.3"/></g><circle cx="81" cy="86.4" fill-rule="nonzero" r="8.3"/><circle cx="83.3" cy="88.7" fill="#80b8ff" fill-rule="nonzero" r="6"/><circle cx="81" cy="86.4" r="8.3" stroke-linecap="round" stroke-linejoin="round" stroke-width="3"/><path d="m78.1.6c.9-.2 1.9-.3 2.9-.3 8.7 0 15.8 7.1 15.8 15.8s-7.1 15.8-15.8 15.8-15.8-7.1-15.8-15.8c0-1.3.1-2.5.4-3.7" stroke-linecap="round" stroke-linejoin="round" stroke-width="3"/><path d="m67.5 7.9c1.1-1.8 2.6-3.3 4.3-4.6" stroke-linecap="round" stroke-linejoin="round" stroke-width="3"/><path d="m85.1 78.8 11.3-17.4" stroke-linecap="round" stroke-linejoin="round" stroke-width="3"/><path d="m47.6 45.8-5.3-9.1c-1-1.7-.4-4 1.3-5l4.8-2.8c1.7-1 4-.4 5 1.3l5.3 9.1z" fill-rule="nonzero"/><path d="m48.7 50.3-5.3-9.1c-1-1.7-.4-4 1.3-5l4.8-2.8c1.7-1 4-.4 5 1.3l5.3 9.1z" fill="#80b8ff" fill-rule="nonzero"/><path d="m47.6 45.8-5.3-9.1c-1-1.7-.4-4 1.3-5l4.8-2.8c1.7-1 4-.4 5 1.3l5.3 9.1z" stroke-linecap="round" stroke-linejoin="round" stroke-width="3"/><path d="m81 140.2c-29.7 0-53.8-24.1-53.8-53.8 0-27.6 20.9-50.4 47.6-53.4v-3.5c0-3.4 2.7-6.1 6.1-6.1s6.1 2.7 6.1 6.1v9.3c0 3.4-2.7 6.1-6.1 6.1-.2 0-.3 0-.5 0-22.7.3-41 18.8-41 41.5 0 22.9 18.6 41.5 41.5 41.5s41.5-18.6 41.5-41.5c0-12.1-5.2-23.5-14.4-31.4-2.6-2.2-2.8-6.1-.6-8.7s6.1-2.8 8.7-.6c11.8 10.2 18.6 25.1 18.6 40.7.1 29.7-24 53.8-53.7 53.8z" fill-rule="nonzero"/><path d="m134.8 86.4c0 29.7-24.1 53.8-53.8 53.8-29.6 0-53.8-24.1-53.8-53.8 0-.5 0-1.1 0-1.6.8-26.9 21.4-48.8 47.6-51.8v-3.5c0-3.4 2.7-6.1 6.1-6.1 1.3 0 2.5.4 3.5 1.1 1.6 1.1 2.6 2.9 2.6 5v9.3c0 3.4-2.7 6.1-6.1 6.1-.2 0-.3 0-.5 0-22.7.3-41 18.8-41 41.5 0 .7 0 1.5.1 2.2 1.2 21.8 19.3 39.3 41.4 39.3 22.9 0 41.5-18.6 41.5-41.5 0-10.7-4.1-20.8-11.4-28.5-.9-1-2-2-3-2.9-.7-.6-1.2-1.3-1.6-2.1-1-2.1-.7-4.7.9-6.6 2.2-2.6 6.1-2.8 8.7-.6.2.2.4.4.7.6 11.6 10.2 18.1 24.8 18.1 40.1z" fill="#bad8ff" fill-rule="nonzero"/><path d="m131.4 82.5c0 28.7-23.4 52.1-52.1 52.1-28 0-50.8-22.1-52.1-49.8.8-26.9 21.4-48.8 47.6-51.8v-3.5c0-3.4 2.7-6.1 6.1-6.1 1.3 0 2.5.4 3.5 1.1.5.8.7 1.8.7 2.8v9c0 3.3-2.7 6-5.9 6-.2 0-.3 0-.5 0-22 .3-39.7 18.2-39.7 40.2 0 2.1.2 4.1.5 6.1 1.2 21.8 19.3 39.3 41.4 39.3 22.9 0 41.5-18.6 41.5-41.5 0-10.7-4.1-20.8-11.4-28.5-1.4-1.8-2.9-3.4-4.6-5-1-2.1-.7-4.7.9-6.6 2.2-2.6 6.1-2.8 8.7-.6.2.2.4.4.7.6 9.5 9.7 14.7 22.6 14.7 36.2z" fill-rule="nonzero"/><g stroke-linecap="round" stroke-linejoin="round" stroke-width="3"><path d="m112 114c6.5-7.3 10.5-17 10.5-27.5 0-12.1-5.2-23.5-14.4-31.4-2.6-2.2-2.8-6.1-.6-8.7s6.1-2.8 8.7-.6c11.8 10.2 18.6 25.1 18.6 40.7 0 29.7-24.1 53.8-53.8 53.8s-53.8-24.1-53.8-53.8c0-13.7 5.2-26.3 13.7-35.8"/><path d="m103.3 121.4c.1-.1.2-.1.3-.2"/><path d="m47 44.8c7.8-6.4 17.4-10.6 27.9-11.8v-3.5c0-3.4 2.7-6.1 6.1-6.1s6.1 2.7 6.1 6.1v9.3c0 3.4-2.7 6.1-6.1 6.1-.2 0-.3 0-.5 0-22.7.3-41 18.8-41 41.5 0 22.9 18.6 41.5 41.5 41.5 6 0 11.6-1.3 16.8-3.5"/><circle cx="97.9" cy="40" fill-rule="nonzero" r="5.7"/><path d="m80.4 51.7v3.6"/><path d="m80.4 116.3v3.6"/><path d="m46.3 85.8h3.6"/><path d="m110.9 85.8h3.6"/><path d="m104.5 61.7-2.5 2.6"/><path d="m58.8 107.4-2.5 2.5"/><path d="m56.3 61.7 2.5 2.6"/><path d="m102 107.4 2.5 2.5"/></g></g></svg>

<?xml version="1.0" encoding="UTF-8"?>
<svg width="152px" height="144px" viewBox="0 0 152 144" version="1.1" xmlns="http://www.w3.org/2000/svg" xmlns:xlink="http://www.w3.org/1999/xlink">
    <!-- Generator: Sketch 51.2 (57519) - http://www.bohemiancoding.com/sketch -->
    <title>Stopwatch</title>
    <desc>Created with Sketch.</desc>
    <defs></defs>
    <g id="Page-1" stroke="none" stroke-width="1" fill="none" fill-rule="evenodd">
        <g id="Stopwatch" transform="translate(2.000000, 2.000000)">
            <g id="Group" transform="translate(0.000000, 140.000000)" class="stroke-primary-300" stroke-linecap="round" stroke-linejoin="round" stroke-width="3">
                <path d="M1.8,0.3 L0.3,0.3" id="Shape"></path>
                <path d="M43.3,0.3 L7.6,0.3" id="Shape"></path>
                <path d="M51,0.3 L49.6,0.3" id="Shape"></path>
                <path d="M141.5,0.3 L58.8,0.3" id="Shape"></path>
                <path d="M148.4,0.3 L146.1,0.3" id="Shape"></path>
            </g>
            <circle id="Oval" class="fill-neutral" fill-rule="nonzero" cx="81" cy="86.4" r="8.3"></circle>
            <circle id="Oval" fill="#80B8FF" fill-rule="nonzero" cx="83.3" cy="88.7" r="6"></circle>
            <circle id="Oval" class="stroke-primary" stroke-width="3" stroke-linecap="round" stroke-linejoin="round" cx="81" cy="86.4" r="8.3"></circle>
            <path d="M78.1,0.6 C79,0.4 80,0.3 81,0.3 C89.7,0.3 96.8,7.4 96.8,16.1 C96.8,24.8 89.7,31.9 81,31.9 C72.3,31.9 65.2,24.8 65.2,16.1 C65.2,14.8 65.3,13.6 65.6,12.4" id="Shape" class="stroke-primary" stroke-width="3" stroke-linecap="round" stroke-linejoin="round"></path>
            <path d="M67.5,7.9 C68.6,6.1 70.1,4.6 71.8,3.3" id="Shape" class="stroke-primary" stroke-width="3" stroke-linecap="round" stroke-linejoin="round"></path>
            <path d="M85.1,78.8 L96.4,61.4" id="Shape" class="stroke-primary" stroke-width="3" stroke-linecap="round" stroke-linejoin="round"></path>
            <path d="M47.6,45.8 L42.3,36.7 C41.3,35 41.9,32.7 43.6,31.7 L48.4,28.9 C50.1,27.9 52.4,28.5 53.4,30.2 L58.7,39.3 L47.6,45.8 Z" id="Shape" class="fill-neutral" fill-rule="nonzero"></path>
            <path d="M48.7,50.3 L43.4,41.2 C42.4,39.5 43,37.2 44.7,36.2 L49.5,33.4 C51.2,32.4 53.5,33 54.5,34.7 L59.8,43.8 L48.7,50.3 Z" id="Shape" fill="#80B8FF" fill-rule="nonzero"></path>
            <path d="M47.6,45.8 L42.3,36.7 C41.3,35 41.9,32.7 43.6,31.7 L48.4,28.9 C50.1,27.9 52.4,28.5 53.4,30.2 L58.7,39.3 L47.6,45.8 Z" id="Shape" class="stroke-primary" stroke-width="3" stroke-linecap="round" stroke-linejoin="round"></path>
            <path d="M81,140.2 C51.3,140.2 27.2,116.1 27.2,86.4 C27.2,58.8 48.1,36 74.8,33 L74.8,29.5 C74.8,26.1 77.5,23.4 80.9,23.4 C84.3,23.4 87,26.1 87,29.5 L87,38.8 C87,42.2 84.3,44.9 80.9,44.9 C80.7,44.9 80.6,44.9 80.4,44.9 C57.7,45.2 39.4,63.7 39.4,86.4 C39.4,109.3 58,127.9 80.9,127.9 C103.8,127.9 122.4,109.3 122.4,86.4 C122.4,74.3 117.2,62.9 108,55 C105.4,52.8 105.2,48.9 107.4,46.3 C109.6,43.7 113.5,43.5 116.1,45.7 C127.9,55.9 134.7,70.8 134.7,86.4 C134.8,116.1 110.7,140.2 81,140.2 Z" id="Shape" class="fill-neutral" fill-rule="nonzero"></path>
            <path d="M134.8,86.4 C134.8,116.1 110.7,140.2 81,140.2 C51.4,140.2 27.2,116.1 27.2,86.4 C27.2,85.9 27.2,85.3 27.2,84.8 C28,57.9 48.6,36 74.8,33 L74.8,29.5 C74.8,26.1 77.5,23.4 80.9,23.4 C82.2,23.4 83.4,23.8 84.4,24.5 C86,25.6 87,27.4 87,29.5 L87,38.8 C87,42.2 84.3,44.9 80.9,44.9 C80.7,44.9 80.6,44.9 80.4,44.9 C57.7,45.2 39.4,63.7 39.4,86.4 C39.4,87.1 39.4,87.9 39.5,88.6 C39.5,88.6 39.5,88.6 39.5,88.6 C40.7,110.4 58.8,127.9 80.9,127.9 C103.8,127.9 122.4,109.3 122.4,86.4 C122.4,75.7 118.3,65.6 111,57.9 C110.1,56.9 109,55.9 108,55 C107.3,54.4 106.8,53.7 106.4,52.9 C105.4,50.8 105.7,48.2 107.3,46.3 C109.5,43.7 113.4,43.5 116,45.7 C116.2,45.9 116.4,46.1 116.7,46.3 C128.3,56.5 134.8,71.1 134.8,86.4 Z" id="Shape" fill="#BAD8FF" fill-rule="nonzero"></path>
            <path d="M131.4,82.5 C131.4,111.2 108,134.6 79.3,134.6 C51.3,134.6 28.5,112.5 27.2,84.8 C28,57.9 48.6,36 74.8,33 L74.8,29.5 C74.8,26.1 77.5,23.4 80.9,23.4 C82.2,23.4 83.4,23.8 84.4,24.5 C84.9,25.3 85.1,26.3 85.1,27.3 L85.1,36.3 C85.1,39.6 82.4,42.3 79.2,42.3 C79,42.3 78.9,42.3 78.7,42.3 C56.7,42.6 39,60.5 39,82.5 C39,84.6 39.2,86.6 39.5,88.6 C39.5,88.6 39.5,88.6 39.5,88.6 C40.7,110.4 58.8,127.9 80.9,127.9 C103.8,127.9 122.4,109.3 122.4,86.4 C122.4,75.7 118.3,65.6 111,57.9 C109.6,56.1 108.1,54.5 106.4,52.9 C105.4,50.8 105.7,48.2 107.3,46.3 C109.5,43.7 113.4,43.5 116,45.7 C116.2,45.9 116.4,46.1 116.7,46.3 C126.2,56 131.4,68.9 131.4,82.5 Z" id="Shape" class="fill-primary-100" fill-rule="nonzero"></path>
            <path d="M112,114 C118.5,106.7 122.5,97 122.5,86.5 C122.5,74.4 117.3,63 108.1,55.1 C105.5,52.9 105.3,49 107.5,46.4 C109.7,43.8 113.6,43.6 116.2,45.8 C128,56 134.8,70.9 134.8,86.5 C134.8,116.2 110.7,140.3 81,140.3 C51.3,140.3 27.2,116.2 27.2,86.5 C27.2,72.8 32.4,60.2 40.9,50.7" id="Shape" class="stroke-primary" stroke-width="3" stroke-linecap="round" stroke-linejoin="round"></path>
            <path d="M103.3,121.4 C103.4,121.3 103.5,121.3 103.6,121.2" id="Shape" class="stroke-primary" stroke-width="3" stroke-linecap="round" stroke-linejoin="round"></path>
            <path d="M47,44.8 C54.8,38.4 64.4,34.2 74.9,33 L74.9,29.5 C74.9,26.1 77.6,23.4 81,23.4 C84.4,23.4 87.1,26.1 87.1,29.5 L87.1,38.8 C87.1,42.2 84.4,44.9 81,44.9 C80.8,44.9 80.7,44.9 80.5,44.9 C57.8,45.2 39.5,63.7 39.5,86.4 C39.5,109.3 58.1,127.9 81,127.9 C87,127.9 92.6,126.6 97.8,124.4" id="Shape" class="stroke-primary" stroke-width="3" stroke-linecap="round" stroke-linejoin="round"></path>
            <circle id="Oval" stroke-width="3" class="stroke-primary fill-primary-100" fill-rule="nonzero" stroke-linecap="round" stroke-linejoin="round" cx="97.9" cy="40" r="5.7"></circle>
            <path d="M80.4,51.7 L80.4,55.3" id="Shape" class="stroke-primary" stroke-width="3" stroke-linecap="round" stroke-linejoin="round"></path>
            <path d="M80.4,116.3 L80.4,119.9" id="Shape" class="stroke-primary" stroke-width="3" stroke-linecap="round" stroke-linejoin="round"></path>
            <path d="M46.3,85.8 L49.9,85.8" id="Shape" class="stroke-primary" stroke-width="3" stroke-linecap="round" stroke-linejoin="round"></path>
            <path d="M110.9,85.8 L114.5,85.8" id="Shape" class="stroke-primary" stroke-width="3" stroke-linecap="round" stroke-linejoin="round"></path>
            <path d="M104.5,61.7 L102,64.3" id="Shape" class="stroke-primary" stroke-width="3" stroke-linecap="round" stroke-linejoin="round"></path>
            <path d="M58.8,107.4 L56.3,109.9" id="Shape" class="stroke-primary" stroke-width="3" stroke-linecap="round" stroke-linejoin="round"></path>
            <path d="M56.3,61.7 L58.8,64.3" id="Shape" class="stroke-primary" stroke-width="3" stroke-linecap="round" stroke-linejoin="round"></path>
            <path d="M102,107.4 L104.5,109.9" id="Shape" class="stroke-primary" stroke-width="3" stroke-linecap="round" stroke-linejoin="round"></path>
        </g>
    </g>
</svg>
